twotone/svg/casino.svg

<svg xmlns="http://www.w3.org/2000/svg" width="24" height="24"><path fill="none" d="M0 0h24v24H0z"/><g fill="currentColor"><path opacity=".3" d="M5 19h14V5H5v14zM16.5 6c.83 0 1.5.67 1.5 1.5S17.33 9 16.5 9 15 8.33 15 7.5 15.67 6 16.5 6zm0 9c.83 0 1.5.67 1.5 1.5s-.67 1.5-1.5 1.5-1.5-.67-1.5-1.5.67-1.5 1.5-1.5zM12 10.5c.83 0 1.5.67 1.5 1.5s-.67 1.5-1.5 1.5-1.5-.67-1.5-1.5.67-1.5 1.5-1.5zM7.5 6C8.33 6 9 6.67 9 7.5S8.33 9 7.5 9 6 8.33 6 7.5 6.67 6 7.5 6zm0 9c.83 0 1.5.67 1.5 1.5S8.33 18 7.5 18 6 17.33 6 16.5 6.67 15 7.5 15z"/><path d="M19 3H5c-1.1 0-2 .9-2 2v14c0 1.1.9 2 2 2h14c1.1 0 2-.9 2-2V5c0-1.1-.9-2-2-2zm0 16H5V5h14v14z"/><circle cx="7.5" cy="16.5" r="1.5"/><circle cx="7.5" cy="7.5" r="1.5"/><circle cx="12" cy="12" r="1.5"/><circle cx="16.5" cy="16.5" r="1.5"/><circle cx="16.5" cy="7.5" r="1.5"/></g></svg>

<?xml version="1.0" encoding="utf-8"?>
<!-- Generator: Adobe Illustrator 19.1.0, SVG Export Plug-In . SVG Version: 6.00 Build 0)  -->
<svg version="1.1" xmlns="http://www.w3.org/2000/svg" xmlns:xlink="http://www.w3.org/1999/xlink" x="0px" y="0px" width="24px"
	 height="24px" viewBox="0 0 24 24" enable-background="new 0 0 24 24" xml:space="preserve">
<g id="Bounding_Boxes">
	<rect fill="none" width="24" height="24"/>
</g>
<g id="Duotone" fill="currentColor">
	<g id="ui_x5F_spec_x5F_header_copy" display="none">
	</g>
	<g>
		<path opacity="0.3" d="M5,19h14V5H5V19z M16.5,6C17.33,6,18,6.67,18,7.5C18,8.33,17.33,9,16.5,9S15,8.33,15,7.5
			C15,6.67,15.67,6,16.5,6z M16.5,15c0.83,0,1.5,0.67,1.5,1.5c0,0.83-0.67,1.5-1.5,1.5S15,17.33,15,16.5C15,15.67,15.67,15,16.5,15z
			 M12,10.5c0.83,0,1.5,0.67,1.5,1.5c0,0.83-0.67,1.5-1.5,1.5s-1.5-0.67-1.5-1.5C10.5,11.17,11.17,10.5,12,10.5z M7.5,6
			C8.33,6,9,6.67,9,7.5C9,8.33,8.33,9,7.5,9S6,8.33,6,7.5C6,6.67,6.67,6,7.5,6z M7.5,15C8.33,15,9,15.67,9,16.5
			C9,17.33,8.33,18,7.5,18S6,17.33,6,16.5C6,15.67,6.67,15,7.5,15z"/>
		<path d="M19,3H5C3.9,3,3,3.9,3,5v14c0,1.1,0.9,2,2,2h14c1.1,0,2-0.9,2-2V5C21,3.9,20.1,3,19,3z M19,19H5V5h14V19z"/>
		<circle cx="7.5" cy="16.5" r="1.5"/>
		<circle cx="7.5" cy="7.5" r="1.5"/>
		<circle cx="12" cy="12" r="1.5"/>
		<circle cx="16.5" cy="16.5" r="1.5"/>
		<circle cx="16.5" cy="7.5" r="1.5"/>
	</g>
</g>
</svg>
